packages/editor-ui/public/n8n-logo-expanded-dark-mode.svg

<svg width="58" height="16" viewBox="0 0 58 16" fill="none" xmlns="http://www.w3.org/2000/svg">
<g clip-path="url(#clip0_1486_25927)">
<path fill-rule="evenodd" clip-rule="evenodd" d="M27.2 6.4C25.7089 6.4 24.4561 5.38018 24.1008 4H20.4331C19.651 4 18.9835 4.56546 18.8549 5.33696L18.7234 6.12608C18.5985 6.87531 18.2195 7.52738 17.6835 8C18.2195 8.47262 18.5985 9.12469 18.7234 9.87392L18.8549 10.663C18.9835 11.4345 19.651 12 20.4331 12H20.9008C21.2561 10.6198 22.5089 9.6 24 9.6C25.7673 9.6 27.2 11.0327 27.2 12.8C27.2 14.5673 25.7673 16 24 16C22.5089 16 21.256 14.9802 20.9008 13.6H20.4331C18.8688 13.6 17.5338 12.4691 17.2766 10.9261L17.1451 10.137C17.0165 9.36546 16.349 8.8 15.5669 8.8H14.2992C13.944 10.1802 12.6911 11.2 11.2 11.2C9.70893 11.2 8.45605 10.1802 8.10081 8.8H6.29919C5.94395 10.1802 4.69107 11.2 3.2 11.2C1.43269 11.2 0 9.76731 0 8C0 6.23269 1.43269 4.8 3.2 4.8C4.69107 4.8 5.94395 5.81982 6.29919 7.2H8.10081C8.45605 5.81982 9.70893 4.8 11.2 4.8C12.6911 4.8 13.944 5.81982 14.2992 7.2H15.5669C16.349 7.2 17.0165 6.63454 17.1451 5.86304L17.2766 5.07392C17.5338 3.53092 18.8688 2.4 20.4331 2.4H24.1008C24.456 1.01982 25.7089 0 27.2 0C28.9673 0 30.4 1.43269 30.4 3.2C30.4 4.96731 28.9673 6.4 27.2 6.4ZM27.2 4.8C28.0837 4.8 28.8 4.08366 28.8 3.2C28.8 2.31634 28.0837 1.6 27.2 1.6C26.3163 1.6 25.6 2.31634 25.6 3.2C25.6 4.08366 26.3163 4.8 27.2 4.8ZM3.2 9.6C4.08366 9.6 4.8 8.88366 4.8 8C4.8 7.11634 4.08366 6.4 3.2 6.4C2.31634 6.4 1.6 7.11634 1.6 8C1.6 8.88366 2.31634 9.6 3.2 9.6ZM12.8 8C12.8 8.88366 12.0837 9.6 11.2 9.6C10.3163 9.6 9.6 8.88366 9.6 8C9.6 7.11634 10.3163 6.4 11.2 6.4C12.0837 6.4 12.8 7.11634 12.8 8ZM25.6 12.8C25.6 13.6837 24.8837 14.4 24 14.4C23.1163 14.4 22.4 13.6837 22.4 12.8C22.4 11.9163 23.1163 11.2 24 11.2C24.8837 11.2 25.6 11.9163 25.6 12.8Z" fill="#EA4B71"/>
<path fill-rule="evenodd" clip-rule="evenodd" d="M48.0015 6.9183V6.84205C48.5598 6.56248 49.118 6.07957 49.118 5.12647C49.118 3.754 47.9888 2.92798 46.4282 2.92798C44.8296 2.92798 43.6877 3.80484 43.6877 5.15189C43.6877 6.06686 44.2206 6.56248 44.8042 6.84205V6.9183C44.1571 7.14705 43.3832 7.83328 43.3832 8.977C43.3832 10.3622 44.5251 11.328 46.4155 11.328C48.306 11.328 49.4098 10.3622 49.4098 8.977C49.4098 7.83328 48.6486 7.15975 48.0015 6.9183ZM46.4155 4.09712C47.0499 4.09712 47.5194 4.50378 47.5194 5.19001C47.5194 5.87624 47.0372 6.2829 46.4155 6.2829C45.7938 6.2829 45.2737 5.87624 45.2737 5.19001C45.2737 4.49107 45.7685 4.09712 46.4155 4.09712ZM46.4155 10.108C45.6797 10.108 45.0833 9.63782 45.0833 8.83721C45.0833 8.11285 45.5782 7.56641 46.4029 7.56641C47.2149 7.56641 47.7097 8.10015 47.7097 8.86263C47.7097 9.63782 47.1387 10.108 46.4155 10.108Z" fill="white"/>
<path d="M51.3672 11.2009H52.9912V7.75707C52.9912 6.62606 53.6763 6.13044 54.4503 6.13044C55.2116 6.13044 55.8079 6.63876 55.8079 7.68082V11.2009H57.4319V7.35041C57.4319 5.68566 56.4676 4.71985 54.9578 4.71985C54.0062 4.71985 53.4733 5.10109 53.0927 5.59671H52.9912L52.8516 4.84693H51.3672V11.2009Z" fill="white"/>
<path d="M36.9912 11.2009H35.3672V4.84693H36.8516L36.9912 5.59671H37.0927C37.4733 5.10109 38.0062 4.71985 38.9578 4.71985C40.4676 4.71985 41.4319 5.68566 41.4319 7.35041V11.2009H39.8079V7.68082C39.8079 6.63876 39.2116 6.13044 38.4503 6.13044C37.6763 6.13044 36.9912 6.62606 36.9912 7.75707V11.2009Z" fill="white"/>
</g>
<defs>
<clipPath id="clip0_1486_25927">
<rect width="58" height="16" fill="white"/>
</clipPath>
</defs>
</svg>

<svg xmlns="http://www.w3.org/2000/svg" width="58" height="16" fill="none"><g clip-path="url(#a)"><path fill="#EA4B71" fill-rule="evenodd" d="M27.2 6.4A3.2 3.2 0 0 1 24.1 4h-3.667a1.6 1.6 0 0 0-1.578 1.337l-.132.79A3.2 3.2 0 0 1 17.683 8a3.2 3.2 0 0 1 1.04 1.874l.132.789A1.6 1.6 0 0 0 20.433 12h.468a3.201 3.201 0 0 1 6.299.8 3.2 3.2 0 0 1-6.3.8h-.467a3.2 3.2 0 0 1-3.156-2.674l-.132-.789A1.6 1.6 0 0 0 15.567 8.8h-1.268a3.201 3.201 0 0 1-6.198 0H6.299A3.201 3.201 0 0 1 0 8a3.2 3.2 0 0 1 6.3-.8h1.8a3.201 3.201 0 0 1 6.2 0h1.267a1.6 1.6 0 0 0 1.578-1.337l.132-.79A3.2 3.2 0 0 1 20.433 2.4h3.668a3.201 3.201 0 0 1 6.299.8 3.2 3.2 0 0 1-3.2 3.2m0-1.6a1.6 1.6 0 1 0 0-3.2 1.6 1.6 0 0 0 0 3.2m-24 4.8a1.6 1.6 0 1 0 0-3.2 1.6 1.6 0 0 0 0 3.2M12.8 8a1.6 1.6 0 1 1-3.2 0 1.6 1.6 0 0 1 3.2 0m12.8 4.8a1.6 1.6 0 1 1-3.2 0 1.6 1.6 0 0 1 3.2 0" clip-rule="evenodd"/><path fill="#fff" fill-rule="evenodd" d="M48.002 6.918v-.076c.558-.28 1.116-.762 1.116-1.716 0-1.372-1.13-2.198-2.69-2.198-1.598 0-2.74.877-2.74 2.224 0 .915.533 1.41 1.116 1.69v.076a2.16 2.16 0 0 0-1.42 2.059c0 1.385 1.141 2.351 3.032 2.351 1.89 0 2.994-.966 2.994-2.351a2.16 2.16 0 0 0-1.408-2.059m-1.587-2.82c.635 0 1.104.406 1.104 1.092s-.482 1.093-1.103 1.093c-.622 0-1.142-.407-1.142-1.093 0-.699.495-1.093 1.142-1.093m0 6.01c-.735 0-1.332-.47-1.332-1.27 0-.725.495-1.272 1.32-1.272.812 0 1.307.534 1.307 1.297 0 .775-.571 1.245-1.294 1.245" clip-rule="evenodd"/><path fill="#fff" d="M51.367 11.2h1.624V7.758c0-1.13.685-1.627 1.46-1.627.76 0 1.357.509 1.357 1.55v3.52h1.624V7.35c0-1.664-.964-2.63-2.474-2.63-.952 0-1.485.381-1.865.877h-.102l-.14-.75h-1.484zm-14.376 0h-1.624V4.848h1.485l.14.75h.1c.381-.496.914-.877 1.866-.877 1.51 0 2.474.966 2.474 2.63v3.85h-1.624V7.68c0-1.041-.596-1.55-1.358-1.55-.774 0-1.459.496-1.459 1.627z"/></g><defs><clipPath id="a"><path fill="#fff" d="M0 0h58v16H0z"/></clipPath></defs></svg>
